X: 10
T: 10th Bat Crossing Rhine
R: jig
M: 6/8
K: Amixolydian
d>fA d2 f|f>ga f>ed|c2 e A>ce|e>fg f>ed|
d>fA d2 f|f>ga f>ed|c2 e A>ce|d3 d2:|
a2 f d2 f|f<af f>ed|c2 e A>ce|e>fg f>ed|
a2 f d2 f|f<af f>ed|c2 e A>ce|d3 d2:|
d3 A>df|f<af f>ed|c3 A>ce|e>fg f>ed|
d3 A>df|f<af f>ed|c2 e A>ce|d3 d2:|
a2 a A>df|f<a3f f>ed|c2 e A>ce|e>fg f>ed|
a2 a A>df|f<a3f f>ed|c2 e A>ce|d3 d2:|

